img/icons/design/stacks.svg

<svg xmlns="http://www.w3.org/2000/svg" viewBox="0 0 48 38"><path d="M17 0a5 5 0 00-5 5v1h-1a5 5 0 00-5 5v1h-.59A5.42 5.42 0 000 17.41V38h30.59A5.42 5.42 0 0036 32.59V32h1a5 5 0 005-5v-1h1a5 5 0 005-5V0zm17 32.59A3.41 3.41 0 0130.59 36H2V17.41A3.41 3.41 0 015.41 14H34zM40 27a3 3 0 01-3 3h-1V12H8v-1a3 3 0 013-3h29zm6-6a3 3 0 01-3 3h-1V6H14V5a3 3 0 013-3h29z" fill="#231f20" data-name="Layer 2"/></svg>

<svg xmlns="http://www.w3.org/2000/svg" viewBox="0 0 48 38"><defs><style>.cls-1{fill:#231f20;}</style></defs><title>Stacks</title><g id="Layer_2" data-name="Layer 2"><g id="Icons"><g id="Design"><path id="Stacks" class="cls-1" d="M17,0a5,5,0,0,0-5,5V6H11a5,5,0,0,0-5,5v1H5.41A5.42,5.42,0,0,0,0,17.41V38H30.59A5.42,5.42,0,0,0,36,32.59V32h1a5,5,0,0,0,5-5V26h1a5,5,0,0,0,5-5V0ZM34,32.59A3.41,3.41,0,0,1,30.59,36H2V17.41A3.41,3.41,0,0,1,5.41,14H34ZM40,27a3,3,0,0,1-3,3H36V12H8V11a3,3,0,0,1,3-3H40Zm6-6a3,3,0,0,1-3,3H42V6H14V5a3,3,0,0,1,3-3H46Z"/></g></g></g></svg>
